X: 021
T: Broadford Bay
P: The Man from Skye
R:Reel (8x32)
B:RSCDS L32-3
Z:Anselm Lingnau <anselm@strathspey.org>
M:4/4
L:1/8
K:Am
Bd|"Am"e2 ed de ed|Be ed "D7"B2 A2|"G"GG GB G2 B2|GB Bd B2 d2|\
   "Am"e2 ed de ed|Be ed "Em"B2 AG|
                                   "Am"AA AB "E7"e2 dB|"Am"A4 A2:|\
Bd|"Am"e2 g2 a2 e^f|g^f ed "D7"B2 A2|"G"GG GB G2 B2|GB Bd B2 d2|
   "Am"e^f ge a2 Aa|g^f ed "G"B2 AG|"F"AA AB "E7"e2 dB|"Am"A4 A2 Bd|\
   "Am"e2 g2 a2 e^f|g^f ed "D7"B2 A2|
                                     "G"GG GB G2 B2|GB Bd B2 d2|\
   "Am"e2 ed de ed|Be ed "G"B2 AG|"F"AA AB "E7"e2 dB|"Am"A4 A2||
|:Bd|"Am"e2 A2 A2 Bd|eg ed "D7"B2 AB|"G"dG G2 BA BG|Bd Gd B2 d2|\
     "Am"eA A2 BA Bd|eg de "Em"B2 AG|
                                     "Am"AA AB "E7"e2 dB|"Am"A4 A2:|\
Bd|"Am"e2 ed e2 e^f|g^f eg "D7"B2 A2|"G"GG GB G2 B2|GB Bd B2 d2|
   "Am"e2 ed e2 e^f|g^f ed "G"B2 AG|"F"AA AB "E7"e2 dB|"Am"A4 A2 Bd|\
   "Am"e2 ed e2 e^f|g^f eg "D7"B2 A2|
                                     "G"GG GB G2 B2|GB Bd B2 d2|\
   "Am"eA A2 BA Bd|eg de "G"B2 AG|"F"AA AB "E7"e2 dB|"Am"A4 A2|]

%%sep 2 1 500
%%sep 1 1 500

